packages/merlin-www-assets/imports/brides/icons/cta-search.svg

<svg viewBox="0 0 20 20" xmlns="http://www.w3.org/2000/svg"><path d="m13.2923098 13.9994165c-1.4103486 1.2450743-3.2630999 2.0005835-5.2923098 2.0005835-4.418278 0-8-3.581722-8-8s3.581722-8 8-8 8 3.581722 8 8c0 2.0292099-.7555092 3.8819612-2.0005835 5.2923098l5.8541369 5.8541368-.7071068.7071068zm-5.2923098 1.0005835c3.8659932 0 7-3.1340068 7-7 0-3.86599325-3.1340068-7-7-7-3.86599325 0-7 3.13400675-7 7 0 3.8659932 3.13400675 7 7 7z"/></svg>

<svg xmlns="http://www.w3.org/2000/svg" viewBox="0 0 20 20"><title>search</title>
  <path d="M13.2923098,13.9994165 C11.8819612,15.2444908 10.0292099,16 8,16 C3.581722,16 0,12.418278 0,8 C0,3.581722 3.581722,0 8,0 C12.418278,0 16,3.581722 16,8 C16,10.0292099 15.2444908,11.8819612 13.9994165,13.2923098 L19.8535534,19.1464466 L19.1464466,19.8535534 L13.2923098,13.9994165 Z M8,15 C11.8659932,15 15,11.8659932 15,8 C15,4.13400675 11.8659932,1 8,1 C4.13400675,1 1,4.13400675 1,8 C1,11.8659932 4.13400675,15 8,15 Z"/>
</svg>
